img/image/design/icon-phone.svg

<svg xmlns="http://www.w3.org/2000/svg" fill="none" viewBox="2.81 3.06 19.5 19.5">
<path d="M4.34518 5.74654L3.81485 5.21621L3.81485 5.21622L4.34518 5.74654ZM5.63195 4.45978L6.16228 4.99011L6.16228 4.99011L5.63195 4.45978ZM8.90131 4.51223L8.37098 5.04256L8.90131 4.51223ZM10.8944 6.50531L11.4247 5.97498L10.8944 6.50531ZM10.9468 9.77468L11.4772 10.305L11.4772 10.305L10.9468 9.77468ZM15.5974 14.4252L16.1277 14.9556L16.1277 14.9556L15.5974 14.4252ZM18.8668 14.4777L19.3971 13.9473L19.3971 13.9473L18.8668 14.4777ZM20.8598 16.4708L20.3295 17.0011L20.3295 17.0011L20.8598 16.4708ZM13.5276 14.7825L14.005 14.204L13.5276 14.7825ZM15.321 14.7016L14.7907 14.1713L14.7907 14.1713L15.321 14.7016ZM10.6705 10.0511L10.1401 9.52073L10.1401 9.52073L10.6705 10.0511ZM10.5896 11.8445L11.1681 11.3671L11.1681 11.3671L10.5896 11.8445ZM7.91642 17.4557C10.0853 19.6245 12.4808 21.2079 14.6273 21.9954C16.7088 22.7591 18.8481 22.8649 20.1559 21.5572L19.0952 20.4966C18.4486 21.1432 17.1084 21.308 15.1439 20.5872C13.2445 19.8903 11.0277 18.4456 8.97708 16.395L7.91642 17.4557ZM3.81485 5.21622C2.50713 6.52394 2.61295 8.66332 3.37666 10.7448C4.16422 12.8913 5.74753 15.2868 7.91642 17.4557L8.97708 16.395C6.92642 14.3443 5.48179 12.1276 4.78487 10.2281C4.06411 8.2637 4.22891 6.92347 4.87551 6.27687L3.81485 5.21622ZM9.43164 3.9819C8.23762 2.78788 6.29875 2.73231 5.10162 3.92945L6.16228 4.99011C6.7418 4.41058 7.73041 4.40199 8.37098 5.04256L9.43164 3.9819ZM11.4247 5.97498L9.43164 3.98189L8.37098 5.04256L10.3641 7.03564L11.4247 5.97498ZM11.4772 10.305C12.6743 9.10788 12.6187 7.169 11.4247 5.97498L10.3641 7.03564C11.0046 7.67621 10.996 8.66483 10.4165 9.24435L11.4772 10.305ZM11.2008 10.5814L11.4772 10.305L10.4165 9.24435L10.1401 9.52073L11.2008 10.5814ZM12.5157 12.8564C12.0326 12.3733 11.5852 11.8726 11.1681 11.3671L10.0111 12.3218C10.4537 12.8582 10.9331 13.3952 11.455 13.917L12.5157 12.8564ZM14.005 14.204C13.4995 13.7869 12.9987 13.3395 12.5157 12.8564L11.455 13.917C11.9769 14.4389 12.5139 14.9184 13.0502 15.361L14.005 14.204ZM15.0671 13.8949L14.7907 14.1713L15.8513 15.2319L16.1277 14.9556L15.0671 13.8949ZM19.3971 13.9473C18.2031 12.7533 16.2642 12.6978 15.0671 13.8949L16.1277 14.9556C16.7072 14.376 17.6959 14.3674 18.3364 15.008L19.3971 13.9473ZM21.3902 15.9404L19.3971 13.9473L18.3364 15.008L20.3295 17.0011L21.3902 15.9404ZM21.4426 20.2705C22.6398 19.0733 22.5842 17.1344 21.3902 15.9404L20.3295 17.0011C20.9701 17.6417 20.9615 18.6303 20.382 19.2098L21.4426 20.2705ZM13.0502 15.361C13.8905 16.0544 15.1003 15.9829 15.8513 15.2319L14.7907 14.1713C14.5824 14.3795 14.2448 14.4019 14.005 14.204L13.0502 15.361ZM10.1401 9.52073C9.38913 10.2717 9.31772 11.4816 10.0111 12.3218L11.1681 11.3671C10.9701 11.1273 10.9926 10.7896 11.2008 10.5814L10.1401 9.52073ZM5.10162 3.92945L3.81485 5.21621L4.87551 6.27687L6.16228 4.99011L5.10162 3.92945ZM20.1559 21.5572L21.4426 20.2705L20.382 19.2098L19.0952 20.4966L20.1559 21.5572Z" fill="#9C8364"/>
</svg>

<svg xmlns="http://www.w3.org/2000/svg" fill="none" viewBox="2.81 3.06 19.5 19.5"><path d="m4.345 5.747-.53-.53.53.53ZM5.632 4.46l.53.53-.53-.53Zm3.27.052-.531.53.53-.53Zm1.992 1.993.53-.53-.53.53Zm.053 3.27.53.53-.53-.53Zm4.65 4.65.53.53-.53-.53Zm3.27.053.53-.53-.53.53Zm1.993 1.993-.53.53.53-.53Zm-7.332-1.688.477-.579-.477.579Zm1.793-.081-.53-.53.53.53Zm-4.65-4.65-.53-.531.53.53Zm-.081 1.793.578-.478-.578.477Zm-2.674 5.61c2.17 2.17 4.565 3.753 6.711 4.54 2.082.764 4.221.87 5.529-.438l-1.06-1.06c-.647.646-1.988.811-3.952.09-1.9-.697-4.116-2.141-6.167-4.192l-1.06 1.06ZM3.815 5.217c-1.308 1.308-1.202 3.447-.438 5.529.787 2.146 2.37 4.542 4.54 6.71l1.06-1.06c-2.05-2.05-3.495-4.267-4.192-6.167-.72-1.964-.556-3.305.09-3.951l-1.06-1.06Zm5.617-1.234c-1.194-1.194-3.133-1.25-4.33-.053l1.06 1.061c.58-.58 1.568-.588 2.209.053l1.06-1.061Zm1.993 1.993L9.432 3.982 8.37 5.042l1.993 1.994 1.06-1.061Zm.052 4.33c1.197-1.197 1.142-3.136-.052-4.33l-1.06 1.06c.64.641.631 1.63.051 2.21l1.061 1.06Zm-.276.276.276-.276-1.06-1.06-.277.276 1.06 1.06Zm1.315 2.275a21.03 21.03 0 0 1-1.348-1.489l-1.157.955c.443.536.922 1.073 1.444 1.595l1.06-1.06Zm1.489 1.348a21.009 21.009 0 0 1-1.49-1.348l-1.06 1.061a22.552 22.552 0 0 0 1.595 1.444l.955-1.157Zm1.062-.31-.276.277 1.06 1.06.277-.275-1.06-1.061Zm4.33.053c-1.194-1.194-3.133-1.25-4.33-.052l1.06 1.06c.58-.579 1.569-.588 2.21.053l1.06-1.06Zm1.993 1.993-1.993-1.993-1.06 1.061 1.992 1.993 1.061-1.06Zm.053 4.33c1.197-1.197 1.141-3.136-.053-4.33l-1.06 1.061c.64.64.632 1.63.052 2.209l1.06 1.06Zm-8.393-4.909c.84.693 2.05.622 2.801-.13l-1.06-1.06a.583.583 0 0 1-.786.033l-.955 1.157Zm-2.91-5.84a2.083 2.083 0 0 0-.129 2.8l1.157-.954a.583.583 0 0 1 .033-.786l-1.06-1.06ZM5.102 3.929 3.815 5.216l1.06 1.06L6.163 4.99l-1.06-1.06Zm15.054 17.628 1.287-1.287-1.061-1.06-1.287 1.287 1.06 1.06Z" fill="#9C8364"/></svg>
